Papirus/48x48/apps/tilesetter.svg

<svg width="48" height="48" version="1.1" xmlns="http://www.w3.org/2000/svg">
 <rect x="4" y="9" width="40" height="32" rx="3" ry="3" style="opacity:.2"/>
 <rect x="4" y="8" width="40" height="32" rx="3" ry="3" style="fill:#4f4f4f"/>
 <path d="m9 12c-1.108 0-2 0.892-2 2v4l5 6v-7h13l-6-5zm16 5h6v21h5v-21h5v-3c0-1.108-0.892-2-2-2h-8zm-13 7-5 6v6c0 1.108 0.892 2 2 2h10l6-5h-13z" style="opacity:.2"/>
 <path d="m9 11c-1.108 0-2 0.892-2 2v4l5 6v-7h13l-6-5zm16 5h6v21h5v-21h5v-3c0-1.108-0.892-2-2-2h-8zm-13 7-5 6v6c0 1.108 0.892 2 2 2h10l6-5h-13z" style="fill:#ffffff"/>
 <path d="m7 8c-1.662 0-3 1.338-3 3v1c0-1.662 1.338-3 3-3h34c1.662 0 3 1.338 3 3v-1c0-1.662-1.338-3-3-3h-34z" style="fill:#ffffff;opacity:.1"/>
</svg>

<svg xmlns="http://www.w3.org/2000/svg" width="48" height="48" version="1.1">
 <rect style="opacity:0.2" width="40" height="32" x="4" y="9" rx="2" ry="2"/>
 <rect style="fill:#4f4f4f" width="40" height="32" x="4" y="8" rx="2" ry="2"/>
 <path style="fill:#ffffff;opacity:0.1" d="M 6 8 C 4.892 8 4 8.892 4 10 L 4 11 C 4 9.892 4.892 9 6 9 L 42 9 C 43.108 9 44 9.892 44 11 L 44 10 C 44 8.892 43.108 8 42 8 L 6 8 z"/>
 <path style="opacity:0.2" d="M 8.5996,12 C 7.7132,12 7,12.713 7,13.6 V 18 L 12,24 V 17 H 25 L 19,12 Z M 25,17 H 31 V 38 H 36 V 17 H 41 V 13.6 C 41,12.713 40.287,12 39.4,12 H 31 Z M 12,24 7,30 V 36.4 C 7,37.287 7.7132,38 8.5996,38 H 19 L 25,33 H 12 Z"/>
 <path style="fill:#e4e4e4" d="M 8.5996,11 C 7.7132,11 7,11.713 7,12.6 V 17 L 12,23 V 16 H 25 L 19,11 Z M 25,16 H 31 V 37 H 36 V 16 H 41 V 12.6 C 41,11.713 40.287,11 39.4,11 H 31 Z M 12,23 7,29 V 35.4 C 7,36.287 7.7132,37 8.5996,37 H 19 L 25,32 H 12 Z"/>
</svg>
